!!!!SEGMENT: Gom2008-Egregie_martir
!!!id: Gom2008
!!!AGN: Motet
!!!voices: 5
!!!COM: Nicolas Gombert
!!!OTL: Egregie martir
**kern	**kern	**kern	**kern	**kern
*part5	*part4	*part3	*part2	*part1
*staff5	*staff4	*staff3	*staff2	*staff1
*I"Bassus	*I"Tenor II	*I"Tenor I	*I"Altus	*I"Superius
*I'B	*I'T. II	*I'T. I	*I'A	*I'S
*clefF4	*clefGv2	*clefGv2	*clefGv2	*clefG2
*k[b-]	*k[b-]	*k[b-]	*k[b-]	*k[b-]
*M2/1	*M2/1	*M2/1	*M2/1	*M2/1
*met(C|)	*met(C|)	*met(C|)	*met(C|)	*met(C|)
=1	=1	=1	=1	=1
!!section: Prima pars: Egregie martir
!!!OMD: Prima pars: Egregie martir
0r	0r	0r	0r	1.dd
.	.	.	.	2cc
=2	=2	=2	=2	=2
0r	0r	0r	0r	2b-y
.	.	.	.	2g
.	.	.	.	2.b-y
.	.	.	.	4cc
=3	=3	=3	=3	=3
0r	0r	0r	0r	2dd
.	.	.	.	2ee-i
.	.	.	.	1dd
=4	=4	=4	=4	=4
0r	0r	0r	1.g	2r
.	.	.	.	2g
.	.	.	.	2b-y
.	.	.	2f	2a
=5	=5	=5	=5	=5
0r	0r	0r	2e	2cc
.	.	.	2c	2cc
.	.	.	2.e	2.g
.	.	.	4f	4a
=6	=6	=6	=6	=6
0r	0r	0r	2g	2b-y
.	.	.	2a	1cc
.	.	.	1g	.
.	.	.	.	2b-y
=7	=7	=7	=7	=7
0r	0r	1.a	2r	2cc
.	.	.	2d	1dd
.	.	.	2f	.
.	.	2g	2e	2cc
=8	=8	=8	=8	=8
0r	0r	2f	4d	2b-y
.	.	.	4e	.
.	.	2d	4f	2a
.	.	.	4g	.
.	.	2.f	4a	2.d
.	.	.	4b-y	.
.	.	.	[2a	.
.	.	4g	.	4e
=9	=9	=9	=9	=9
0r	0r	2a	2a]	2f
.	.	2b-y	2g	2g
.	.	1a	2g	1d
.	.	.	[2f	.
=10	=10	=10	=10	=10
0r	1.d	2r	4f]	1.r
.	.	.	4e	.
.	.	2d	4d	.
.	.	.	4c	.
.	.	2f	2B-y	.
.	2c	2e	2c	2g
=11	=11	=11	=11	=11
0r	2B-y	1g	2G	2.b-y
.	2G	.	2g	.
.	.	.	.	4a
.	2.B-y	2.d	2f	4b-y
.	.	.	.	4cc
.	.	.	2b-y	[2dd
.	4c	4e	.	.
=12	=12	=12	=12	=12
0r	2d	2f	2a	2dd]
.	2e-i	1g	2g	2cc
.	1d	.	1a	1dd
.	.	2f	.	.
=13	=13	=13	=13	=13
1.G	2r	1g	1g	2.b-y
.	2G	.	.	.
.	.	.	.	4a
.	2B-y	2r	1r	2g
2F	2A	2c	.	2a
=14	=14	=14	=14	=14
2E	1c	2.e	0r	1.g
2C	.	.	.	.
.	.	4f	.	.
2.E	2.G	4g	.	.
.	.	4a	.	.
.	.	[2g	.	4f
4F	4A	.	.	4e
=15	=15	=15	=15	=15
2G	2B-y	2g]	0r	2d
2A	1c	2f	.	2c
1G	.	1g	.	1d
.	2BnXi	.	.	.
=16	=16	=16	=16	=16
2r	0c	1e	1g	0r
2C	.	.	.	.
2F	.	2f	2a	.
2E	.	2g	2g	.
=17	=17	=17	=17	=17
1G	1r	2d	1b-y	0r
.	.	1g	.	.
2.D	1d	.	[1a	.
.	.	[2f	.	.
4E	.	.	.	.
=18	=18	=18	=18	=18
2F	2c	2f]	2a]	0r
1G	2B-y	4e	2g	.
.	.	4d	.	.
.	[1c	2e	1a	.
2F	.	2f	.	.
=19	=19	=19	=19	=19
1G	2c]	1d	0r	1dd
.	2B-y	.	.	.
1r	2A	2r	.	2cc
.	2G	2g	.	2b-y
=20	=20	=20	=20	=20
0r	1A	2f	1r	1.cc
.	.	2e	.	.
.	1r	[1f	[1d	.
.	.	.	.	2b-y
=21	=21	=21	=21	=21
0r	1r	2f]	2d]	2a
.	.	1g	2e	2g
.	1d	.	2d	2.a
.	.	2f	2f	.
.	.	.	.	4b-y
=22	=22	=22	=22	=22
0r	2c	0g	2e	2cc
.	2B-y	.	2d	1dd
.	[1c	.	1e	.
.	.	.	.	2cc
=23	=23	=23	=23	=23
1.D	2c]	0r	2.d	1dd
.	2B-y	.	.	.
.	.	.	4e	.
.	2A	.	2f	1r
2E	2G	.	[2g	.
=24	=24	=24	=24	=24
2D	1A	1d	2g]	0r
2F	.	.	2f	.
[1E	2.G	2c	1g	.
.	.	2B-y	.	.
.	4F	.	.	.
=25	=25	=25	=25	=25
2E]	2G	2c	0r	1r
2D	1A	1d	.	.
1E	.	.	.	[1g
.	2G	2c#i	.	.
=26	=26	=26	=26	=26
0D	1A	[0d	0r	2g]
.	.	.	.	2f
.	1r	.	.	2d
.	.	.	.	2f
=27	=27	=27	=27	=27
1.G	1r	0d]	0r	2g
.	.	.	.	1b-y
.	[1d	.	.	.
2F	.	.	.	2a
=28	=28	=28	=28	=28
2D	2d]	0r	0r	2f
2E	2c	.	.	2g
2.F	2A	.	.	2a
.	2c	.	.	[2f
4E	.	.	.	.
=29	=29	=29	=29	=29
1D	2d	0r	1r	4f]
.	.	.	.	4g
.	1f	.	.	4a
.	.	.	.	4b-y
1C	.	.	[1g	4cc
.	.	.	.	4dd
.	2e	.	.	2ee
=30	=30	=30	=30	=30
0r	2c	0r	2g]	1.a
.	2d	.	2f	.
.	1f	.	2d	.
.	.	.	2f	[2dd
=31	=31	=31	=31	=31
1r	4e	0r	1g	2dd]
.	4d	.	.	.
.	1e	.	.	2cc
[1G	.	.	[1b-y	1dd
.	2d	.	.	.
=32	=32	=32	=32	=32
2G]	2B-y	0r	2b-]	0r
2F	2c	.	2a	.
2D	1d	.	2f	.
2F	.	.	2a	.
=33	=33	=33	=33	=33
2G	0r	1.d	4g	0r
.	.	.	2f	.
2B-y	.	.	.	.
.	.	.	8eL	.
.	.	.	8dJ	.
2.A	.	.	1e	.
.	.	2c	.	.
4G	.	.	.	.
=34	=34	=34	=34	=34
2F	0r	2A	2d	0r
2E	.	2c	1c	.
1D	.	2d	.	.
.	.	[2f	2BnXi	.
=35	=35	=35	=35	=35
1C	0r	2f]	1c	1.g
.	.	2e	.	.
2r	.	2c	1A	.
2D	.	[2A	.	2f
=36	=36	=36	=36	=36
1D	0r	2A]	0r	2d
.	.	1d	.	2f
2.E	.	.	.	1g
.	.	2c	.	.
8DL	.	.	.	.
8CJ	.	.	.	.
=37	=37	=37	=37	=37
2BB-y	2r	0d	0r	1.b-y
2GG	1G	.	.	.
1D	.	.	.	.
.	2F	.	.	2a
=38	=38	=38	=38	=38
1D	2D	0d	1.r	2f
.	2F	.	.	2a
2.GG	2G	.	.	2.b-y
.	[2B-y	.	[2d	.
4AA	.	.	.	4a
=39	=39	=39	=39	=39
2BB-y	2B-]	0r	2d]	4f
.	.	.	.	4g
2C	2A	.	2c	1a
2D	2F	.	2A	.
2E	2G	.	2c	2g
=40	=40	=40	=40	=40
2D	1B-y	2r	1d	2f
2BB-y	.	2d	.	1g
2C	1A	2c	2e	.
2D	.	2A	[2f	2f
=41	=41	=41	=41	=41
2BB-y	[0G	2d	2f]	0g
2C	.	1c	2e	.
1GG	.	.	1d	.
.	.	2BnXi	.	.
=42	=42	=42	=42	=42
0C	0G]	1c	0e	2r
.	.	.	.	2g
.	.	2r	.	[1cc
.	.	2c	.	.
=43	=43	=43	=43	=43
0r	0r	1.f	0r	2cc]
.	.	.	.	2cc
.	.	.	.	2dd
.	.	2f	.	2cc
=44	=44	=44	=44	=44
0r	0r	2g	0r	2b-y
.	.	2f	.	1dd
.	.	2e	.	.
.	.	[2a	.	[2cc
=45	=45	=45	=45	=45
0r	0r	2a]	1r	4cc]
.	.	.	.	4a
.	.	2.g	.	2b-y
.	.	.	1d	1a
.	.	4e	.	.
.	.	2f	.	.
=46	=46	=46	=46	=46
0r	1G	1d	1.g	1b-y
.	[1c	[1e	.	1cc
.	.	.	2g	.
=47	=47	=47	=47	=47
0r	2c]	2e]	2a	1cc
.	2c	2e	2g	.
.	2d	2f	2f	2a
.	2c	[2e	[2a	[2cc
=48	=48	=48	=48	=48
0r	2A	2e]	2a]	2cc]
.	2B-y	1d	1g	2b-y
.	1A	.	.	2cc
.	.	2c	2f	2a
=49	=49	=49	=49	=49
1G	0r	2d	2g	2.b-y
.	.	2B-y	2d	.
.	.	.	.	4g
2F	.	2c	2f	4a
.	.	.	.	4b-y
2E	.	2e	[2g	[2cc
=50	=50	=50	=50	=50
1G	0r	2.d	2g]	2cc]
.	.	.	2d	1b-y
.	.	4B-y	.	.
2D	.	2d	1f	.
2F	.	2c	.	2a
=51	=51	=51	=51	=51
2G	1d	4B-y	0r	2g
.	.	4c	.	.
2B-y	.	4d	.	2f
.	.	4e	.	.
2A	2c	2f	.	2a
[2G	2B-y	2g	.	[2b-y
=52	=52	=52	=52	=52
4G]	1d	2G	0r	4b-]
4F	.	.	.	4a
2D	.	1B-y	.	2f
1E	2G	.	.	1g
.	2c	4A	.	.
.	.	4G	.	.
=53	=53	=53	=53	=53
1D	2d	1A	1a	1f
.	2f	.	.	.
1r	2e	1r	2g	1r
.	[2d	.	2f	.
=54	=54	=54	=54	=54
0r	4d]	1r	1a	0r
.	4c	.	.	.
.	2A	.	.	.
.	2B-y	1d	2d	.
.	2d	.	2f	.
=55	=55	=55	=55	=55
0r	2e	2c	2g	0r
.	1g	2B-y	1b-y	.
.	.	1c	.	.
.	2f	.	2a	.
=56	=56	=56	=56	=56
0r	2e	1G	1g	1r
.	1d	.	.	.
.	.	1B-y	2f	1dd
.	4c	.	4e	.
.	4B-y	.	4d	.
=57	=57	=57	=57	=57
0r	2A	2c	2e	2cc
.	2G	2e	2g	2b-y
.	1B-y	2d	2f	1dd
.	.	[2g	[2b-y	.
=58	=58	=58	=58	=58
0r	1r	4g]	4b-]	2g
.	.	4f	4a	.
.	.	2d	4f	2b-y
.	.	.	4g	.
.	1A	2e	1a	2.cc
.	.	2c	.	.
.	.	.	.	4a
=59	=59	=59	=59	=59
0r	2G	2d	1d	4b-y
.	.	.	.	4cc
.	2F	2f	.	1dd
.	1A	1e	2r	.
.	.	.	2e	2cc#i
=60	=60	=60	=60	=60
1D	2D	1d	2.f	1dd
.	2F	.	.	.
.	.	.	4d	.
2C	2G	1r	4e	2r
.	.	.	4f	.
2BB-y	2B-y	.	[2g	[2dd
=61	=61	=61	=61	=61
1D	1A	1r	2g]	4dd]
.	.	.	.	4cc
.	.	.	2f	2a
2GG	1r	1d	1g	1b-y
2BB-y	.	.	.	.
=62	=62	=62	=62	=62
2C	1G	2c	2r	1g
2E	.	2B-y	2G	.
2D	2F	2d	4A	1r
.	.	.	4B-y	.
[2C	2E	[2G	4c	.
.	.	.	4d	.
=63	=63	=63	=63	=63
4C]	1G	2G]	4e	0r
4BB-y	.	.	4f	.
2GG	.	2B-y	2g	.
2AA	2C	2c	2e	.
[2D	2D	[2A	[2f	.
=64	=64	=64	=64	=64
2D]	2F	2A]	4f]	0r
.	.	.	4e	.
2GG	2G	2B-y	1d	.
1AA	1E	[1A	.	.
.	.	.	2c#i	.
=65	=65	=65	=65	=65
1D	1F	1A]	1d	1r
1r	1G	2r	2r	1dd
.	.	2B-y	2d	.
=66	=66	=66	=66	=66
0r	0r	2c	2e	2cc
.	.	2B-y	2f	2dd
.	.	1e-X	1g	2.b-y
.	.	.	.	4cc
=67	=67	=67	=67	=67
0r	0r	1d	1f	2dd
.	.	.	.	2a
.	.	2G	1d	2b-y
.	.	2B-y	.	2dd
=68	=68	=68	=68	=68
0r	0r	2c	2e	4cc
.	.	.	.	4b-y
.	.	2e-X	1g	4a
.	.	.	.	4g
.	.	2.d	.	1a
.	.	.	4f	.
.	.	4c	4e	.
=69	=69	=69	=69	=69
1r	1r	1d	1f	1a
1F	1A	1c	2r	2r
.	.	.	2a	2f
=70	=70	=70	=70	=70
2G	2B-y	0r	2g	2d
2F	2c	.	2a	1f
1B-y	[1d	.	2.f	.
.	.	.	.	2d
.	.	.	4g	.
=71	=71	=71	=71	=71
1A	2d]	0r	2a	1e
.	2c	.	2e	.
2D	1A	.	2f	[1d
2F	.	.	2a	.
=72	=72	=72	=72	=72
2G	2B-y	0r	4g	1d]
.	.	.	2f	.
2B-y	1d	.	.	.
.	.	.	8eL	.
.	.	.	8dJ	.
1A	.	.	1e	1a
.	2c#i	.	.	.
=73	=73	=73	=73	=73
0D	0d	1A	1d	0f
.	.	2B-y	2r	.
.	.	[2d	2d	.
=74	=74	=74	=74	=74
0r	0r	2d]	2e	0r
.	.	2c	1g	.
.	.	2B-y	.	.
.	.	2A	2f	.
=75	=75	=75	=75	=75
0r	0r	2c	2e	1g
.	.	2B-y	2d	.
.	.	1A	2f	2a
.	.	.	[2e	[2cc
=76	=76	=76	=76	=76
0r	0r	1G	2e]	2cc]
.	.	.	2d	2b-y
.	.	2d	2f	2a
.	.	[2e	[2g	2g
=77	=77	=77	=77	=77
1r	0r	2e]	2g]	2b-y
.	.	2c	4f	2cc
.	.	.	4e	.
1D	.	1d	1f	1a
=78	=78	=78	=78	=78
2E	1G	1B-y	1g	1g
1G	.	.	.	.
.	2A	2.c	1r	1r
2F	[2c	.	.	.
.	.	4d	.	.
=79	=79	=79	=79	=79
2E	2c]	2e	1.r	0r
2D	2B-y	2f	.	.
2F	2A	2c	.	.
2G	2G	[2d	2d	.
=80	=80	=80	=80	=80
1E	2B-y	2d]	2e	1r
.	2c	2c	1g	.
1D	1A	1d	.	1a
.	.	.	2f	.
=81	=81	=81	=81	=81
0r	1G	0r	2e	2b-y
.	.	.	2d	1dd
.	1r	.	2f	.
.	.	.	2e	2cc
=82	=82	=82	=82	=82
0r	0r	2r	1d	2b-y
.	.	2d	.	2a
.	.	2e	1c	2.cc
.	.	[2g	.	.
.	.	.	.	4b-y
=83	=83	=83	=83	=83
0r	0r	2g]	1d	1a
.	.	2f	.	.
.	.	2e	2e	2g
.	.	2d	[2f	[2a
=84	=84	=84	=84	=84
0r	2r	2f	4f]	2a]
.	.	.	4e	.
.	2G	2g	1d	2b-y
.	2A	1e	.	1a
.	[2c	.	2c	.
=85	=85	=85	=85	=85
1G	2c]	0d	2.d	2g
.	2B-y	.	.	2g
.	.	.	4e	.
2D	2A	.	2f	2a
[2G	2G	.	2g	[2b-y
=86	=86	=86	=86	=86
2G]	2B-y	0r	2d	4b-]
.	.	.	.	4a
2C	2c	.	2e	1g
1D	1A	.	[1dl	.
.	.	.	.	2f#i
=87	=87	=87	=87	=87
0GG	0G	0B-y	0d]	0g
=88||	=88||	=88||	=88||	=88||
*M2/1	*M2/1	*M2/1	*M2/1	*M2/1
*met(C|)	*met(C|)	*met(C|)	*met(C|)	*met(C|)
!!section: Secunda pars: Socius enim
!!!OMD: Secunda pars: Socius enim
0r	0r	0r	0r	1.a
.	.	.	.	2a
=89	=89	=89	=89	=89
0r	0r	0r	1.d	1a
.	.	.	.	1b-y
.	.	.	2d	.
=90	=90	=90	=90	=90
0r	0r	0r	1d	1a
.	.	.	1e	2r
.	.	.	.	[2g
=91	=91	=91	=91	=91
0r	0r	0r	1d	2g]
.	.	.	.	2f
.	.	.	2r	2e
.	.	.	[2c	2g
=92	=92	=92	=92	=92
0r	2r	0r	2c]	1d
.	1G	.	2B-y	.
.	.	.	2G	2e
.	2F	.	2c	2f
=93	=93	=93	=93	=93
2r	2E	0r	1G	2.g
1C	2G	.	.	.
.	.	.	.	8fL
.	.	.	.	8eJ
.	1D	.	2A	1f
2BB-y	.	.	2B-y	.
=94	=94	=94	=94	=94
2AA	1E	1r	2c	2r
2C	.	.	2.G	1cc
1GG	2D	[1d	.	.
.	.	.	4A	.
.	[2G	.	4B-y	2b-y
.	.	.	4c	.
=95	=95	=95	=95	=95
2r	4G]	2d]	2B-y	2g
.	4F	.	.	.
1G	2G	2d	2G	2b-y
.	2D	1d	1d	1a
2F	2d	.	.	.
=96	=96	=96	=96	=96
2E	2c	1e	2r	0r
2G	2B-y	.	1g	.
1D	2.A	1d	.	.
.	.	.	2f	.
.	4B-y	.	.	.
=97	=97	=97	=97	=97
0r	2c	2r	2e	0r
.	2C	1c	2g	.
.	1G	.	1d	.
.	.	2B-y	.	.
=98	=98	=98	=98	=98
0r	0r	2A	1e	2r
.	.	2c	.	1cc
.	.	1G	2.d	.
.	.	.	.	2b-y
.	.	.	4e	.
=99	=99	=99	=99	=99
0r	0r	2r	2f	2g
.	.	1g	2e	2cc
.	.	.	2g	2b-y
.	.	2f	[2a	[2cc
=100	=100	=100	=100	=100
1r	0r	2e	2a]	2cc]
.	.	2g	1g	2b-y
1D	.	1d	.	1a
.	.	.	2f	.
=101	=101	=101	=101	=101
2.E	0r	1r	2e-X	0g
.	.	.	4d	.
4F	.	.	4c	.
[1G	.	1d	1B-y	.
=102	=102	=102	=102	=102
2G]	1r	2e	2r	0r
2F	.	2f	2A	.
1E	1G	[1g	2B-y	.
.	.	.	2c	.
=103	=103	=103	=103	=103
1D	2A	2g]	1d	1r
.	2B-y	2f	.	.
1C	[1c	1e	1r	1g
=104	=104	=104	=104	=104
0r	2c]	1d	2r	2a
.	2B-y	.	2d	2b-y
.	1A	2c	2e	[1cc
.	.	2c	2f	.
=105	=105	=105	=105	=105
0r	1G	2.d	2g	2cc]
.	.	.	2G	2b-y
.	.	4e	.	.
.	1F	[1f	2.A	1a
.	.	.	4B-y	.
=106	=106	=106	=106	=106
1C	0r	2f]	1c	1g
.	.	2e	.	.
2D	.	2d	2.A	2f
[2F	.	2c	.	[2a
.	.	.	4B-y	.
=107	=107	=107	=107	=107
2F]	0r	2A	2c	2a]
4E	.	2B-y	1d	4g
4D	.	.	.	4f
1E	.	1G	.	1g
.	.	.	2c#i	.
=108	=108	=108	=108	=108
1D	2r	1A	1d	1f
.	1d	.	.	.
1AA	.	1r	2r	1e
.	2c	.	[2a	.
=109	=109	=109	=109	=109
0r	2A	0r	2a]	0r
.	2B-y	.	2g	.
.	2.c	.	2e	.
.	.	.	[2g	.
.	4B-y	.	.	.
=110	=110	=110	=110	=110
1.r	2G	2r	4g]	1.r
.	.	.	4f	.
.	2B-y	1d	2d	.
.	1A	.	2f	.
[2A	.	2c	2e	[2cc
=111	=111	=111	=111	=111
2A]	0r	2A	2r	2cc]
2G	.	2B-y	1g	2b-y
2E	.	2.c	.	2g
2F	.	.	2f	2a
.	.	4B-y	.	.
=112	=112	=112	=112	=112
2.G	0r	2G	2d	2.b-y
.	.	2B-y	2.f	.
4F	.	.	.	4a
2D	.	1A	.	2f
.	.	.	4e	.
2F	.	.	[2d	2a
=113	=113	=113	=113	=113
1E	1G	1.r	4d]	1g
.	.	.	8cL	.
.	.	.	8B-yJ	.
.	.	.	2c	.
1D	2A	.	2.d	1f
.	2B-y	2d	.	.
.	.	.	8cL	.
.	.	.	8B-yJ	.
=114	=114	=114	=114	=114
0r	1c	2e	1A	1.r
.	.	2f	.	.
.	1G	1g	1r	.
.	.	.	.	2g
=115	=115	=115	=115	=115
0r	0r	1d	2r	2a
.	.	.	2d	2b-y
.	.	2r	2e	2cc
.	.	2d	2f	4b-y
.	.	.	.	4a
=116	=116	=116	=116	=116
1r	0r	2e	1g	2g
.	.	1g	.	2b-y
1D	.	.	2d	1a
.	.	2f	2f	.
=117	=117	=117	=117	=117
2.E	1r	1g	1e	2r
.	.	.	.	2g
4F	.	.	.	.
1G	1G	2r	1d	2b-y
.	.	[2g	.	2cc
=118	=118	=118	=118	=118
2D	2.A	2g]	2r	1a
2F	.	2f	2d	.
.	4B-y	.	.	.
2E	1c	2g	2e	1g
2C	.	2e	[2g	.
=119	=119	=119	=119	=119
1D	2A	1d	2g]	2r
.	2D	.	2f	2a
2GG	2G	1d	2d	2b-y
2D	2F	.	2f	[2a
=120	=120	=120	=120	=120
2E	2G	2B-y	1e	2a]
2C	2E	2c	.	1g
1D	1F	1A	1d	.
.	.	.	.	2f
=121	=121	=121	=121	=121
0GG	0D	1G	1B-y	1g
.	.	2r	2r	2r
.	.	2B-y	2d	2dd
=122	=122	=122	=122	=122
0r	0r	2c	2e	2cc
.	.	2B-y	2f	2dd
.	.	1e-i	1g	2.b-y
.	.	.	.	4cc
=123	=123	=123	=123	=123
0r	0r	1d	1f	2dd
.	.	.	.	2a
.	.	2G	1d	2b-y
.	.	2B-y	.	2dd
=124	=124	=124	=124	=124
0r	0r	2c	2e	4cc
.	.	.	.	4b-y
.	.	2e-X	1g	4a
.	.	.	.	4g
.	.	2.d	.	[1a
.	.	.	4f	.
.	.	4c	4e	.
=125	=125	=125	=125	=125
1r	1r	1d	1f	1a]
1F	1A	1c	2r	2r
.	.	.	2a	2f
=126	=126	=126	=126	=126
2G	2B-y	0r	2g	2d
2F	2c	.	2a	1f
1B-y	[1d	.	2.f	.
.	.	.	.	2d
.	.	.	4g	.
=127	=127	=127	=127	=127
1A	2d]	0r	2a	1e
.	2c	.	2e	.
2D	2.A	.	2f	[1d
2F	.	.	2a	.
.	8GL	.	.	.
.	8AJ	.	.	.
=128	=128	=128	=128	=128
2G	2B-y	0r	4g	1d]
.	.	.	2f	.
2B-y	1d	.	.	.
.	.	.	8eL	.
.	.	.	8dJ	.
1A	.	.	1e	1a
.	2c#i	.	.	.
=129	=129	=129	=129	=129
0D	0d	1A	1d	0f
.	.	2B-y	2r	.
.	.	[2d	2d	.
=130	=130	=130	=130	=130
0r	0r	2d]	2e	0r
.	.	2c	1g	.
.	.	2B-y	.	.
.	.	2A	2f	.
=131	=131	=131	=131	=131
0r	0r	2c	2e	1g
.	.	2B-y	2d	.
.	.	1A	2f	2a
.	.	.	[2e	[2cc
=132	=132	=132	=132	=132
0r	0r	1G	2e]	2cc]
.	.	.	2d	2b-y
.	.	2d	2f	2a
.	.	[2e	[2g	2g
=133	=133	=133	=133	=133
1r	0r	2e]	2g]	2b-y
.	.	2c	4f	2cc
.	.	.	4e	.
1D	.	1d	1f	1a
=134	=134	=134	=134	=134
2E-X	1G	1B-y	1g	1g
1G	.	.	.	.
.	2A	2.c	1r	1r
2F	[2c	.	.	.
.	.	4d	.	.
=135	=135	=135	=135	=135
2E	2c]	2e	1.r	0r
2D	2B-y	2f	.	.
2F	2A	2c	.	.
2G	2G	[2d	2d	.
=136	=136	=136	=136	=136
1E	2B-y	2d]	2e	1r
.	2c	2c	1g	.
1D	1A	1d	.	1a
.	.	.	2f	.
=137	=137	=137	=137	=137
0r	1G	0r	2e	2b-y
.	.	.	2d	1dd
.	1r	.	2f	.
.	.	.	2e	2cc
=138	=138	=138	=138	=138
0r	0r	2r	1d	2b-y
.	.	2d	.	2a
.	.	2e	1c	2.cc
.	.	[2g	.	.
.	.	.	.	4b-y
=139	=139	=139	=139	=139
0r	0r	2g]	2r	1a
.	.	2f	2d	.
.	.	2e	2e	2g
.	.	2d	[2f	[2a
=140	=140	=140	=140	=140
0r	2r	2f	4f]	2a]
.	.	.	4e	.
.	2G	2g	1d	2b-y
.	2A	1e	.	1a
.	[2c	.	2c	.
=141	=141	=141	=141	=141
1G	2c]	0d	2.d	2g
.	2B-y	.	.	2g
.	.	.	4e	.
2D	2A	.	2f	2a
[2G	2G	.	2g	[2b-y
=142	=142	=142	=142	=142
2G]	2B-y	0r	2d	4b-]
.	.	.	.	4a
2C	2c	.	2e	1g
1D	1A	.	1d	.
.	.	.	.	2f#i
=143	=143	=143	=143	=143
2GG	[0Gl	1B-y	2r	[0gl
2GG	.	.	2d	.
1C	.	2c	2e	.
.	.	[2e-i	2c	.
=144	=144	=144	=144	=144
2C	0G_	2e-]	2c	0g_
2BB-y	.	2d	2d	.
2C	.	2c	2e-i	.
2GG	.	2B-y	2d	.
=145	=145	=145	=145	=145
2C	0G_	2e-i	2c	0g_
2BB-y	.	2d	2d	.
1C	.	1c	1e-i	.
=146	=146	=146	=146	=146
0GGl	0G]	0B-yl	0dl	0g]
==	==	==	==	==
*-	*-	*-	*-	*-
!!!system-decoration: s1,s2,s3,s4,s5
!!!RDF**kern: i = editorial accidental
!!!RDF**kern: l = terminal long
!!!ENC: Janosch Umbreit
!!!END: 2025/11/14
!!!EED: Benjamin Ory
!!!EEV: 2025/11/17
!!!YEC: Copyright 2025 Benjamin Ory, All Rights Reserved
!!!ONB: Translated from MusicXML on 2025/11/17